;cnc-gen facing
;Machine
;vendor: Snapmaker
;model: A350
;description: Generic Snapmaker Marlin v20180725
;Preamble
M3 P100
G4 S2
G21
G90

G0 X5.000 Y-5.000 Z15.000
G1 X5.000 Y-5.000 Z0.000 F100
G1 X4.365 Y-5.000 Z0.000 F100
G1 X4.413 Y-4.757 Z-0.019 F300
G1 X4.551 Y-4.551 Z-0.037 F300
G1 X4.757 Y-4.413 Z-0.056 F300
G1 X5.000 Y-4.365 Z-0.075 F300
G1 X5.243 Y-4.413 Z-0.094 F300
G1 X5.449 Y-4.551 Z-0.112 F300
G1 X5.587 Y-4.757 Z-0.131 F300
G1 X5.635 Y-5.000 Z-0.150 F300
G1 X5.587 Y-5.243 Z-0.169 F300
G1 X5.449 Y-5.449 Z-0.188 F300
G1 X5.243 Y-5.587 Z-0.206 F300
G1 X5.000 Y-5.635 Z-0.225 F300
G1 X4.757 Y-5.587 Z-0.244 F300
G1 X4.551 Y-5.449 Z-0.263 F300
G1 X4.413 Y-5.243 Z-0.281 F300
G1 X4.365 Y-5.000 Z-0.300 F300
G1 X4.413 Y-4.757 Z-0.319 F300
G1 X4.551 Y-4.551 Z-0.337 F300
G1 X4.757 Y-4.413 Z-0.356 F300
G1 X5.000 Y-4.365 Z-0.375 F300
G1 X5.243 Y-4.413 Z-0.394 F300
G1 X5.449 Y-4.551 Z-0.412 F300
G1 X5.587 Y-4.757 Z-0.431 F300
G1 X5.635 Y-5.000 Z-0.450 F300
G1 X5.587 Y-5.243 Z-0.469 F300
G1 X5.449 Y-5.449 Z-0.487 F300
G1 X5.243 Y-5.587 Z-0.506 F300
G1 X5.000 Y-5.635 Z-0.525 F300
G1 X4.757 Y-5.587 Z-0.544 F300
G1 X4.551 Y-5.449 Z-0.563 F300
G1 X4.413 Y-5.243 Z-0.581 F300
G1 X4.365 Y-5.000 Z-0.600 F300
G1 X4.413 Y-4.757 Z-0.619 F300
G1 X4.551 Y-4.551 Z-0.637 F300
G1 X4.757 Y-4.413 Z-0.656 F300
G1 X5.000 Y-4.365 Z-0.675 F300
G1 X5.243 Y-4.413 Z-0.694 F300
G1 X5.449 Y-4.551 Z-0.712 F300
G1 X5.587 Y-4.757 Z-0.731 F300
G1 X5.635 Y-5.000 Z-0.750 F300
G1 X5.587 Y-5.243 Z-0.769 F300
G1 X5.449 Y-5.449 Z-0.787 F300
G1 X5.243 Y-5.587 Z-0.806 F300
G1 X5.000 Y-5.635 Z-0.825 F300
G1 X4.757 Y-5.587 Z-0.844 F300
G1 X4.551 Y-5.449 Z-0.863 F300
G1 X4.413 Y-5.243 Z-0.881 F300
G1 X4.365 Y-5.000 Z-0.900 F300
G1 X4.413 Y-4.757 Z-0.906 F300
G1 X4.551 Y-4.551 Z-0.912 F300
G1 X4.757 Y-4.413 Z-0.919 F300
G1 X5.000 Y-4.365 Z-0.925 F300
G1 X5.243 Y-4.413 Z-0.931 F300
G1 X5.449 Y-4.551 Z-0.938 F300
G1 X5.587 Y-4.757 Z-0.944 F300
G1 X5.635 Y-5.000 Z-0.950 F300
G1 X5.587 Y-5.243 Z-0.956 F300
G1 X5.449 Y-5.449 Z-0.962 F300
G1 X5.243 Y-5.587 Z-0.969 F300
G1 X5.000 Y-5.635 Z-0.975 F300
G1 X4.757 Y-5.587 Z-0.981 F300
G1 X4.551 Y-5.449 Z-0.988 F300
G1 X4.413 Y-5.243 Z-0.994 F300
G1 X4.365 Y-5.000 Z-1.000 F300
G1 X5.000 Y-5.000 Z-1.000 F300
G1 X-5.000 Y-5.000 Z-1.000 F300
G0 X-5.000 Y-5.000 Z15.000
G0 X5.000 Y-4.000 Z15.000
G1 X5.000 Y-4.000 Z0.000 F800
G1 X5.000 Y-4.000 Z-1.000 F100
G1 X-5.000 Y-4.000 Z-1.000 F800
G0 X-5.000 Y-4.000 Z15.000
G0 X5.000 Y-3.000 Z15.000
G1 X5.000 Y-3.000 Z0.000 F800
G1 X5.000 Y-3.000 Z-1.000 F100
G1 X-5.000 Y-3.000 Z-1.000 F800
G0 X-5.000 Y-3.000 Z15.000
G0 X5.000 Y-2.000 Z15.000
G1 X5.000 Y-2.000 Z0.000 F800
G1 X5.000 Y-2.000 Z-1.000 F100
G1 X-5.000 Y-2.000 Z-1.000 F800
G0 X-5.000 Y-2.000 Z15.000
G0 X5.000 Y-1.000 Z15.000
G1 X5.000 Y-1.000 Z0.000 F800
G1 X5.000 Y-1.000 Z-1.000 F100
G1 X-5.000 Y-1.000 Z-1.000 F800
G0 X-5.000 Y-1.000 Z15.000
G0 X5.000 Y0.000 Z15.000
G1 X5.000 Y0.000 Z0.000 F800
G1 X5.000 Y0.000 Z-1.000 F100
G1 X-5.000 Y0.000 Z-1.000 F800
G0 X-5.000 Y0.000 Z15.000
G0 X5.000 Y1.000 Z15.000
G1 X5.000 Y1.000 Z0.000 F800
G1 X5.000 Y1.000 Z-1.000 F100
G1 X-5.000 Y1.000 Z-1.000 F800
G0 X-5.000 Y1.000 Z15.000
G0 X5.000 Y2.000 Z15.000
G1 X5.000 Y2.000 Z0.000 F800
G1 X5.000 Y2.000 Z-1.000 F100
G1 X-5.000 Y2.000 Z-1.000 F800
G0 X-5.000 Y2.000 Z15.000
G0 X5.000 Y3.000 Z15.000
G1 X5.000 Y3.000 Z0.000 F800
G1 X5.000 Y3.000 Z-1.000 F100
G1 X-5.000 Y3.000 Z-1.000 F800
G0 X-5.000 Y3.000 Z15.000
G0 X5.000 Y4.000 Z15.000
G1 X5.000 Y4.000 Z0.000 F800
G1 X5.000 Y4.000 Z-1.000 F100
G1 X-5.000 Y4.000 Z-1.000 F800
G0 X-5.000 Y4.000 Z15.000
G0 X5.000 Y5.000 Z15.000
G1 X5.000 Y5.000 Z0.000 F800
G1 X5.000 Y5.000 Z-1.000 F100
G1 X-5.000 Y5.000 Z-1.000 F800
G0 X-5.000 Y5.000 Z15.000

;Postamble
G0 X0.000 Y0.000
M5
