;cnc-gen facing
;Machine
;vendor: Snapmaker
;model: A350
;description: Generic Snapmaker Marlin v20180725
;Preamble
M3 P100
G4 S2
G21
G90

G0 X5.000 Y-5.000 Z5.000
G1 X5.000 Y-5.000 Z0.000 F100

;Single step-down facing operation to depth 1

;Boring to depth 1
G1 X4.683 Y-5.000 Z0.000 F100
G1 X4.707 Y-4.878 Z-0.019 F100
G1 X4.775 Y-4.775 Z-0.037 F100
G1 X4.878 Y-4.707 Z-0.056 F100
G1 X5.000 Y-4.683 Z-0.075 F100
G1 X5.122 Y-4.707 Z-0.094 F100
G1 X5.225 Y-4.775 Z-0.112 F100
G1 X5.293 Y-4.878 Z-0.131 F100
G1 X5.317 Y-5.000 Z-0.150 F100
G1 X5.293 Y-5.122 Z-0.169 F100
G1 X5.225 Y-5.225 Z-0.188 F100
G1 X5.122 Y-5.293 Z-0.206 F100
G1 X5.000 Y-5.317 Z-0.225 F100
G1 X4.878 Y-5.293 Z-0.244 F100
G1 X4.775 Y-5.225 Z-0.263 F100
G1 X4.707 Y-5.122 Z-0.281 F100
G1 X4.683 Y-5.000 Z-0.300 F100
G1 X4.707 Y-4.878 Z-0.319 F100
G1 X4.775 Y-4.775 Z-0.337 F100
G1 X4.878 Y-4.707 Z-0.356 F100
G1 X5.000 Y-4.683 Z-0.375 F100
G1 X5.122 Y-4.707 Z-0.394 F100
G1 X5.225 Y-4.775 Z-0.412 F100
G1 X5.293 Y-4.878 Z-0.431 F100
G1 X5.317 Y-5.000 Z-0.450 F100
G1 X5.293 Y-5.122 Z-0.469 F100
G1 X5.225 Y-5.225 Z-0.487 F100
G1 X5.122 Y-5.293 Z-0.506 F100
G1 X5.000 Y-5.317 Z-0.525 F100
G1 X4.878 Y-5.293 Z-0.544 F100
G1 X4.775 Y-5.225 Z-0.563 F100
G1 X4.707 Y-5.122 Z-0.581 F100
G1 X4.683 Y-5.000 Z-0.600 F100
G1 X4.707 Y-4.878 Z-0.619 F100
G1 X4.775 Y-4.775 Z-0.637 F100
G1 X4.878 Y-4.707 Z-0.656 F100
G1 X5.000 Y-4.683 Z-0.675 F100
G1 X5.122 Y-4.707 Z-0.694 F100
G1 X5.225 Y-4.775 Z-0.712 F100
G1 X5.293 Y-4.878 Z-0.731 F100
G1 X5.317 Y-5.000 Z-0.750 F100
G1 X5.293 Y-5.122 Z-0.769 F100
G1 X5.225 Y-5.225 Z-0.787 F100
G1 X5.122 Y-5.293 Z-0.806 F100
G1 X5.000 Y-5.317 Z-0.825 F100
G1 X4.878 Y-5.293 Z-0.844 F100
G1 X4.775 Y-5.225 Z-0.863 F100
G1 X4.707 Y-5.122 Z-0.881 F100
G1 X4.683 Y-5.000 Z-0.900 F100
G1 X4.707 Y-4.878 Z-0.906 F100
G1 X4.775 Y-4.775 Z-0.912 F100
G1 X4.878 Y-4.707 Z-0.919 F100
G1 X5.000 Y-4.683 Z-0.925 F100
G1 X5.122 Y-4.707 Z-0.931 F100
G1 X5.225 Y-4.775 Z-0.938 F100
G1 X5.293 Y-4.878 Z-0.944 F100
G1 X5.317 Y-5.000 Z-0.950 F100
G1 X5.293 Y-5.122 Z-0.956 F100
G1 X5.225 Y-5.225 Z-0.962 F100
G1 X5.122 Y-5.293 Z-0.969 F100
G1 X5.000 Y-5.317 Z-0.975 F100
G1 X4.878 Y-5.293 Z-0.981 F100
G1 X4.775 Y-5.225 Z-0.988 F100
G1 X4.707 Y-5.122 Z-0.994 F100
G1 X4.683 Y-5.000 Z-1.000 F100
G1 X4.707 Y-4.878 Z-1.000 F100
G1 X4.775 Y-4.775 Z-1.000 F100
G1 X4.878 Y-4.707 Z-1.000 F100
G1 X5.000 Y-4.683 Z-1.000 F100
G1 X5.122 Y-4.707 Z-1.000 F100
G1 X5.225 Y-4.775 Z-1.000 F100
G1 X5.293 Y-4.878 Z-1.000 F100
G1 X5.317 Y-5.000 Z-1.000 F100
G1 X5.293 Y-5.122 Z-1.000 F100
G1 X5.225 Y-5.225 Z-1.000 F100
G1 X5.122 Y-5.293 Z-1.000 F100
G1 X5.000 Y-5.317 Z-1.000 F100
G1 X4.878 Y-5.293 Z-1.000 F100
G1 X4.775 Y-5.225 Z-1.000 F100
G1 X4.707 Y-5.122 Z-1.000 F100
G1 X4.683 Y-5.000 Z-1.000 F100
G1 X5.000 Y-5.000 Z-1.000 F100

;Cutting face 10x10x1
G1 X-5.000 Y-5.000 Z-1.000 F100
G0 X-5.000 Y-5.000 Z5.000
G0 X5.000 Y-4.000 Z5.000
G1 X5.000 Y-4.000 Z0.000 F400
G1 X5.000 Y-4.000 Z-1.000 F100
G1 X-5.000 Y-4.000 Z-1.000 F400
G0 X-5.000 Y-4.000 Z5.000
G0 X5.000 Y-3.000 Z5.000
G1 X5.000 Y-3.000 Z0.000 F400
G1 X5.000 Y-3.000 Z-1.000 F100
G1 X-5.000 Y-3.000 Z-1.000 F400
G0 X-5.000 Y-3.000 Z5.000
G0 X5.000 Y-2.000 Z5.000
G1 X5.000 Y-2.000 Z0.000 F400
G1 X5.000 Y-2.000 Z-1.000 F100
G1 X-5.000 Y-2.000 Z-1.000 F400
G0 X-5.000 Y-2.000 Z5.000
G0 X5.000 Y-1.000 Z5.000
G1 X5.000 Y-1.000 Z0.000 F400
G1 X5.000 Y-1.000 Z-1.000 F100
G1 X-5.000 Y-1.000 Z-1.000 F400
G0 X-5.000 Y-1.000 Z5.000
G0 X5.000 Y0.000 Z5.000
G1 X5.000 Y0.000 Z0.000 F400
G1 X5.000 Y0.000 Z-1.000 F100
G1 X-5.000 Y0.000 Z-1.000 F400
G0 X-5.000 Y0.000 Z5.000
G0 X5.000 Y1.000 Z5.000
G1 X5.000 Y1.000 Z0.000 F400
G1 X5.000 Y1.000 Z-1.000 F100
G1 X-5.000 Y1.000 Z-1.000 F400
G0 X-5.000 Y1.000 Z5.000
G0 X5.000 Y2.000 Z5.000
G1 X5.000 Y2.000 Z0.000 F400
G1 X5.000 Y2.000 Z-1.000 F100
G1 X-5.000 Y2.000 Z-1.000 F400
G0 X-5.000 Y2.000 Z5.000
G0 X5.000 Y3.000 Z5.000
G1 X5.000 Y3.000 Z0.000 F400
G1 X5.000 Y3.000 Z-1.000 F100
G1 X-5.000 Y3.000 Z-1.000 F400
G0 X-5.000 Y3.000 Z5.000
G0 X5.000 Y4.000 Z5.000
G1 X5.000 Y4.000 Z0.000 F400
G1 X5.000 Y4.000 Z-1.000 F100
G1 X-5.000 Y4.000 Z-1.000 F400
G0 X-5.000 Y4.000 Z5.000
G0 X5.000 Y5.000 Z5.000
G1 X5.000 Y5.000 Z0.000 F400
G1 X5.000 Y5.000 Z-1.000 F100
G1 X-5.000 Y5.000 Z-1.000 F400
G0 X-5.000 Y5.000 Z5.000

;Postamble
G0 X0.000 Y0.000
M5
