;cnc-gen slot
;Machine
;vendor: Snapmaker
;model: A350
;description: Generic Snapmaker Marlin v20180725
;Preamble
M3 P100
G4 S2
G21
G90

G0 X-50.000 Y0.000 Z5.000
G1 X-50.000 Y0.000 Z0.000 F100
G1 X-50.000 Y0.000 Z-1.000 F100
G1 X50.000 Y0.000 Z-1.000 F400
G0 X50.000 Y0.000 Z5.000
G0 X-50.000 Y0.000 Z5.000
G1 X-50.000 Y0.000 Z0.000 F400
G1 X-50.000 Y0.000 Z-1.000 F100
G1 X-50.000 Y0.000 Z-2.000 F100
G1 X50.000 Y0.000 Z-2.000 F400
G0 X50.000 Y0.000 Z5.000
G0 X-50.000 Y0.000 Z5.000
G1 X-50.000 Y0.000 Z0.000 F400
G1 X-50.000 Y0.000 Z-2.000 F100
G1 X-50.000 Y0.000 Z-3.000 F100
G1 X50.000 Y0.000 Z-3.000 F400
G0 X50.000 Y0.000 Z5.000
G0 X-50.000 Y0.000 Z5.000
G1 X-50.000 Y0.000 Z0.000 F400
G1 X-50.000 Y0.000 Z-3.000 F100
G1 X-50.000 Y0.000 Z-4.000 F100
G1 X50.000 Y0.000 Z-4.000 F400
G0 X50.000 Y0.000 Z5.000
G0 X-50.000 Y0.000 Z5.000
G1 X-50.000 Y0.000 Z0.000 F400
G1 X-50.000 Y0.000 Z-4.000 F100
G1 X-50.000 Y0.000 Z-5.000 F100
G1 X50.000 Y0.000 Z-5.000 F400
G0 X50.000 Y0.000 Z5.000
G0 X-50.000 Y0.000 Z5.000
G1 X-50.000 Y0.000 Z0.000 F400
G1 X-50.000 Y0.000 Z-5.000 F100
G1 X-50.000 Y0.000 Z-6.000 F100
G1 X50.000 Y0.000 Z-6.000 F400
G0 X50.000 Y0.000 Z5.000
G0 X-50.000 Y0.000 Z5.000
G1 X-50.000 Y0.000 Z0.000 F400
G1 X-50.000 Y0.000 Z-6.000 F100
G1 X-50.000 Y0.000 Z-7.000 F100
G1 X50.000 Y0.000 Z-7.000 F400
G0 X50.000 Y0.000 Z5.000
G0 X-50.000 Y0.000 Z5.000
G1 X-50.000 Y0.000 Z0.000 F400
G1 X-50.000 Y0.000 Z-7.000 F100
G1 X-50.000 Y0.000 Z-8.000 F100
G1 X50.000 Y0.000 Z-8.000 F400
G0 X50.000 Y0.000 Z5.000
G0 X-50.000 Y0.000 Z5.000
G1 X-50.000 Y0.000 Z0.000 F400
G1 X-50.000 Y0.000 Z-8.000 F100
G1 X-50.000 Y0.000 Z-9.000 F100
G1 X50.000 Y0.000 Z-9.000 F400
G0 X50.000 Y0.000 Z5.000
G0 X-50.000 Y0.000 Z5.000
G1 X-50.000 Y0.000 Z0.000 F400
G1 X-50.000 Y0.000 Z-9.000 F100
G1 X-50.000 Y0.000 Z-10.000 F100
G1 X50.000 Y0.000 Z-10.000 F400
G0 X50.000 Y0.000 Z5.000
G0 X-50.000 Y0.000 Z5.000
G1 X-50.000 Y0.000 Z0.000 F400
G1 X-50.000 Y0.000 Z-10.000 F100
G1 X-50.000 Y0.000 Z-11.000 F100
G1 X50.000 Y0.000 Z-11.000 F400
G0 X50.000 Y0.000 Z5.000
G0 X-50.000 Y0.000 Z5.000
G1 X-50.000 Y0.000 Z0.000 F400
G1 X-50.000 Y0.000 Z-11.000 F100
G1 X-50.000 Y0.000 Z-12.000 F100
G1 X50.000 Y0.000 Z-12.000 F400
G0 X50.000 Y0.000 Z5.000
G0 X-50.000 Y0.000 Z5.000
G1 X-50.000 Y0.000 Z0.000 F400
G1 X-50.000 Y0.000 Z-12.000 F100
G1 X-50.000 Y0.000 Z-13.000 F100
G1 X50.000 Y0.000 Z-13.000 F400
G0 X50.000 Y0.000 Z5.000
G0 X-50.000 Y0.000 Z5.000
G1 X-50.000 Y0.000 Z0.000 F400
G1 X-50.000 Y0.000 Z-13.000 F100
G1 X-50.000 Y0.000 Z-14.000 F100
G1 X50.000 Y0.000 Z-14.000 F400
G0 X50.000 Y0.000 Z5.000
G0 X-50.000 Y0.000 Z5.000
G1 X-50.000 Y0.000 Z0.000 F400
G1 X-50.000 Y0.000 Z-14.000 F100
G1 X-50.000 Y0.000 Z-15.000 F100
G1 X50.000 Y0.000 Z-15.000 F400
G0 X50.000 Y0.000 Z5.000
G0 X-50.000 Y0.000 Z5.000
G1 X-50.000 Y0.000 Z0.000 F400
G1 X-50.000 Y0.000 Z-15.000 F100
G1 X-50.000 Y0.000 Z-16.000 F100
G1 X50.000 Y0.000 Z-16.000 F400
G0 X50.000 Y0.000 Z5.000
G0 X-50.000 Y0.000 Z5.000
G1 X-50.000 Y0.000 Z0.000 F400
G1 X-50.000 Y0.000 Z-16.000 F100
G1 X-50.000 Y0.000 Z-17.000 F100
G1 X50.000 Y0.000 Z-17.000 F400
G0 X50.000 Y0.000 Z5.000
G0 X-50.000 Y0.000 Z5.000
G1 X-50.000 Y0.000 Z0.000 F400
G1 X-50.000 Y0.000 Z-17.000 F100
G1 X-50.000 Y0.000 Z-18.000 F100
G1 X50.000 Y0.000 Z-18.000 F400
G0 X50.000 Y0.000 Z5.000
G0 X-50.000 Y0.000 Z5.000
G1 X-50.000 Y0.000 Z0.000 F400
G1 X-50.000 Y0.000 Z-18.000 F100
G1 X-50.000 Y0.000 Z-19.000 F100
G1 X50.000 Y0.000 Z-19.000 F400
G0 X50.000 Y0.000 Z5.000
G0 X-50.000 Y0.000 Z5.000
G1 X-50.000 Y0.000 Z0.000 F400
G1 X-50.000 Y0.000 Z-19.000 F100
G1 X-50.000 Y0.000 Z-20.000 F100
G1 X50.000 Y0.000 Z-20.000 F400
G0 X50.000 Y0.000 Z5.000

;Postamble
G0 X0.000 Y0.000
M5
